X:1
T:Nead Na Lachan Sa Mhuta
M:9/8
R:Slip Jig
L:1/8
S:Geraldine Cotter's Traditional Irish Tin Whistle Tutor
K:D
|:F2F FDF G2E|F2F FDF E2D|F2F FDF G2B|
AFD DEF E2D:|:B2B BAG FGA|B2E E2FG2B|
ABc dcB ABc|d2D DEFE2D2:|
